X:1
T:I Need Thee Every Hour
T:I Need Thee Every Hour
T:Robert Lowry
T:Annie Sherwood Hawks, 1871
T:Public Domain Courtesy of the Cyber Hymnal™
C:Robert Lowry
Z:Public Domain
Z:Courtesy of the Cyber Hymnal™
%%score ( 1 2 ) ( 3 4 )
L:1/8
Q:1/4=103
M:3/4
K:Ab
V:1 treble 
V:2 treble 
V:3 bass 
V:4 bass 
V:1
 [CA]2 | [Ec]3 [DB] [CA][B,G] | [CA]4 [CA]2 | (A3 B) (AF) | [CE]4 E2 | [EB]3 [Ec] [EB]E | %6
w: 1.~I|need Thee ev- ery|hour, most|gra- * cious *|Lord; No|ten- der voice like|
w: 2.~I|need Thee ev- ery|hour, stay|Thou * near- *|by; Temp-|ta- tions lose their|
w: 3.~I|need Thee ev- ery|hour, in|joy * or *|pain; Come|quick- ly and a-|
w: 4.~I|need Thee ev- ery|hour; teach|me * Thy *|will; And|Thy rich prom- is-|
w: 5.~I|need Thee ev- ery|hour, most|Ho- * ly *|One; O|make me Thine in-|
 [Ec]4 [FA]2 | ([EG]3 [FA]) ([EG][=DF]) | E4 ||"^Refrain" [Ac]2 | [Ac]3 [EA] [Ad][Ac] | %11
w: Thine can|peace * af- *|ford.|||
w: power when|Thou * art *|nigh.|||
w: bide, or|life * is *|vain.|||
w: es in|me * ful- *|fill.|||
w: deed, Thou|bless- * èd *|Son.|||
 [Ac]2 [GB]4 | [EB]3 [EA] [Ec][EB] | [EB]2 [EA]2 [EA]2 | [FA]3 [FB] [FA][DF] | [CE]2 [EA]2 [FB]2 | %16
w: |||||
w: |||||
w: |||||
w: |||||
w: |||||
 ([Ec]3 [CA]) [DB]2 | [CA]4 |] %18
w: ||
w: ||
w: ||
w: ||
w: ||
V:2
 x2 | x6 | x6 | D4 D2 | x4 E2 | x5 E | x6 | x6 | E4 || x2 | x6 | x6 | x6 | x6 | x6 | x6 | x6 | %17
 x4 |] %18
V:3
 [A,,E,]2 | [A,,A,]3 [D,F,] E,E, | [A,,E,]4 [A,,_G,]2 | [D,F,]4 (F,A,) | [A,,A,]4 [E,G,]2 | %5
w: ~|~ ~ ~ ~|~ ~|~ ~ *|~ ~|
 [E,G,]3 [E,A,] [E,G,][E,G,] | A,4 [A,,C]2 | [B,,B,]4 (B,A,) | [E,G,]4 || [A,E]2 | %10
w: ~ ~ ~ ~|~ ~|~ ~ *|~|I|
 [A,E]3 [A,C] [A,F][A,E] | [E,E]2 [E,E]4 | [E,D]3 [E,C] [E,E][E,D] | [A,,D]2 [A,,C]2 [C,A,]2 | %14
w: need Thee, O I|need Thee;|Ev- ery hour I|need Thee; O|
 [D,A,]3 [D,A,] [D,A,][D,A,] | [A,,C]2 [C,A,]2 [D,A,]2 | [E,A,]4 [E,G,]2 | [A,,A,]4 |] %18
w: bless me now, my|Sav- ior, I|come to|Thee.|
V:4
 x2 | x4 E,E, | x6 | x4 D,2 | x6 | x6 | A,4 x2 | x4 B,,2 | x4 || x2 | x6 | x6 | x6 | x6 | x6 | x6 | %16
 x6 | x4 |] %18

